X: 1
T: Owen's
M: 9/8
L: 1/8
R: slip jig
K: Gmaj
|: d>ed dBG d2 G | d>ed dBG e2 g | d>ed dBG dBG | A>BA A2 B c2 e :|
d>cB c2 A cBA | c>BA B2 G BAG | B>AG A2 F A>GF | GAB DGF G3 |
d>cB c2 a cBA | c>BA B2 g BAG | B>AG A2 f gdB | gdB d>gf g3 ||
